icons/folder.svg

<svg id="Layer_5" enable-background="new 0 0 64 64" height="512" viewBox="0 0 64 64" width="512" xmlns="http://www.w3.org/2000/svg"><g><g><g><path d="m30 2-10 10v18 20h-6v-48z" fill="#e6e9ed"/></g><g><path d="m14 2v48h-6v-12-36z" fill="#f0d0b4"/></g><g><path d="m8 38v12h-6v-8c0-2.21 1.79-4 4-4z" fill="#ffc729"/></g><g><path d="m28 50v12h-22c-2.21 0-4-1.79-4-4v-8h6 6 6z" fill="#fcd770"/></g><g><path d="m62 38v20c0 2.21-1.79 4-4 4h-30v-12-8c0-2.21 1.79-4 4-4h4c2.21 0 4-1.79 4-4v-4-8c0-2.21 1.79-4 4-4h2l16 16z" fill="#fcd770"/></g><g><path d="m62 22v6l-10-10h6c2.21 0 4 1.79 4 4z" fill="#fcd770"/></g><g><path d="m58 51v6c0 .55-.45 1-1 1h-14c-.55 0-1-.45-1-1v-6c0-.55.45-1 1-1h14c.55 0 1 .45 1 1z" fill="#5cd6b3"/></g><g><path d="m62 28v6l-16-16h6z" fill="#ff826e"/></g><g><path d="m32 2h-2v8 2h-10v18 20h8v-8c0-2.21 1.79-4 4-4h4c2.21 0 4-1.79 4-4v-4-8c0-2.21 1.79-4 4-4h2 6 6v-8-8z" fill="#f0d0b4"/></g><g><path d="m24 18h12v8h-12z" fill="#aab2bd"/></g><g><path d="m30 10v2h-10l10-10z" fill="#5cd6b3"/></g></g><g><path d="m59 17.101v-16.101h-27-2.414-22.586v36h-1c-2.757 0-5 2.243-5 5v16c0 2.757 2.243 5 5 5h52c2.757 0 5-2.243 5-5v-36c0-2.414-1.721-4.434-4-4.899zm-7.414 1.899 9.414 9.414v3.172l-12.586-12.586zm9.414 3v3.586l-6.586-6.586h3.586c1.654 0 3 1.346 3 3zm-42-10.414v37.414h-4v-46h12.586zm10-7.172v6.586h-6.586zm-16-1.414v46h-4v-46zm-7 36h1v10h-4v-7c0-1.654 1.346-3 3-3zm0 22c-1.654 0-3-1.346-3-3v-7h24v10zm21-19v7h-6v-36h10v-10h1 25v14h-13c-2.757 0-5 2.243-5 5v12c0 1.654-1.346 3-3 3h-4c-2.757 0-5 2.243-5 5zm31 19h-29v-19c0-1.654 1.346-3 3-3h4c2.757 0 5-2.243 5-5v-12c0-1.654 1.346-3 3-3h1.586l15.414 15.414v23.586c0 1.654-1.346 3-3 3z"/><path d="m57 49h-14c-1.103 0-2 .897-2 2v6c0 1.103.897 2 2 2h14c1.103 0 2-.897 2-2v-6c0-1.103-.897-2-2-2zm0 8h-14l-.001-6h.001 14z"/><path d="m49 53h2v2h-2z"/><path d="m45 53h2v2h-2z"/><path d="m53 53h2v2h-2z"/><path d="m33 5h22v2h-22z"/><path d="m33 9h22v2h-22z"/><path d="m53 13h2v2h-2z"/><path d="m33 13h18v2h-18z"/><path d="m37 17h-14v10h14zm-2 8h-10v-6h10z"/><path d="m23 29h14v2h-14z"/><path d="m23 33h14v2h-14z"/></g></g></svg>

<?xml version="1.0" encoding="UTF-8" standalone="no"?>
<svg
   xmlns:dc="http://purl.org/dc/elements/1.1/"
   xmlns:cc="http://creativecommons.org/ns#"
   xmlns:rdf="http://www.w3.org/1999/02/22-rdf-syntax-ns#"
   xmlns:svg="http://www.w3.org/2000/svg"
   xmlns="http://www.w3.org/2000/svg"
   xmlns:sodipodi="http://sodipodi.sourceforge.net/DTD/sodipodi-0.dtd"
   xmlns:inkscape="http://www.inkscape.org/namespaces/inkscape"
   inkscape:version="1.0 (4035a4fb49, 2020-05-01)"
   sodipodi:docname="folder.svg"
   version="1.1"
   width="24"
   viewBox="0 0 3 3"
   height="24"
   enable-background="new 0 0 64 64"
   id="Layer_5">
  <metadata
     id="metadata81">
    <rdf:RDF>
      <cc:Work
         rdf:about="">
        <dc:format>image/svg+xml</dc:format>
        <dc:type
           rdf:resource="http://purl.org/dc/dcmitype/StillImage" />
        <dc:title></dc:title>
      </cc:Work>
    </rdf:RDF>
  </metadata>
  <defs
     id="defs79" />
  <sodipodi:namedview
     inkscape:current-layer="Layer_5"
     inkscape:window-maximized="1"
     inkscape:window-y="0"
     inkscape:window-x="0"
     inkscape:cy="19.457362"
     inkscape:cx="6.7421994"
     inkscape:zoom="15.75"
     showgrid="false"
     id="namedview77"
     inkscape:window-height="1417"
     inkscape:window-width="2560"
     inkscape:pageshadow="2"
     inkscape:pageopacity="0"
     guidetolerance="10"
     gridtolerance="10"
     objecttolerance="10"
     borderopacity="1"
     bordercolor="#666666"
     pagecolor="#ffffff" />
  <g
     transform="matrix(0.0483871,0,0,0.0483871,-0.0483871,-0.0483871)"
     id="g74">
    <g
       id="g46">
      <g
         id="g4">
        <path
           id="path2"
           fill="#e6e9ed"
           d="M 30,2 20,12 V 30 50 H 14 V 2 Z" />
      </g>
      <g
         id="g8">
        <path
           id="path6"
           fill="#f0d0b4"
           d="M 14,2 V 50 H 8 V 38 2 Z" />
      </g>
      <g
         id="g12">
        <path
           id="path10"
           fill="#ffc729"
           d="M 8,38 V 50 H 2 v -8 c 0,-2.21 1.79,-4 4,-4 z" />
      </g>
      <g
         id="g16">
        <path
           id="path14"
           fill="#fcd770"
           d="M 28,50 V 62 H 6 C 3.79,62 2,60.21 2,58 v -8 h 6 6 6 z" />
      </g>
      <g
         id="g20">
        <path
           id="path18"
           fill="#fcd770"
           d="m 62,38 v 20 c 0,2.21 -1.79,4 -4,4 H 28 V 50 42 c 0,-2.21 1.79,-4 4,-4 h 4 c 2.21,0 4,-1.79 4,-4 v -4 -8 c 0,-2.21 1.79,-4 4,-4 h 2 l 16,16 z" />
      </g>
      <g
         id="g24">
        <path
           id="path22"
           fill="#fcd770"
           d="m 62,22 v 6 L 52,18 h 6 c 2.21,0 4,1.79 4,4 z" />
      </g>
      <g
         id="g28">
        <path
           id="path26"
           fill="#5cd6b3"
           d="m 58,51 v 6 c 0,0.55 -0.45,1 -1,1 H 43 c -0.55,0 -1,-0.45 -1,-1 v -6 c 0,-0.55 0.45,-1 1,-1 h 14 c 0.55,0 1,0.45 1,1 z" />
      </g>
      <g
         id="g32">
        <path
           id="path30"
           fill="#ff826e"
           d="m 62,28 v 6 L 46,18 h 6 z" />
      </g>
      <g
         id="g36">
        <path
           id="path34"
           fill="#f0d0b4"
           d="m 32,2 h -2 v 8 2 H 20 v 18 20 h 8 v -8 c 0,-2.21 1.79,-4 4,-4 h 4 c 2.21,0 4,-1.79 4,-4 v -4 -8 c 0,-2.21 1.79,-4 4,-4 h 2 6 6 V 10 2 Z" />
      </g>
      <g
         id="g40">
        <path
           id="path38"
           fill="#aab2bd"
           d="m 24,18 h 12 v 8 H 24 Z" />
      </g>
      <g
         id="g44">
        <path
           id="path42"
           fill="#5cd6b3"
           d="m 30,10 v 2 H 20 L 30,2 Z" />
      </g>
    </g>
    <g
       id="g72">
      <path
         id="path48"
         d="M 59,17.101 V 1 H 32 29.586 7 V 37 H 6 c -2.757,0 -5,2.243 -5,5 v 16 c 0,2.757 2.243,5 5,5 h 52 c 2.757,0 5,-2.243 5,-5 V 22 c 0,-2.414 -1.721,-4.434 -4,-4.899 z M 51.586,19 61,28.414 v 3.172 L 48.414,19 Z M 61,22 v 3.586 L 54.414,19 H 58 c 1.654,0 3,1.346 3,3 z M 19,11.586 V 49 H 15 V 3 H 27.586 Z M 29,4.414 V 11 H 22.414 Z M 13,3 V 49 H 9 V 3 Z M 6,39 H 7 V 49 H 3 V 42 C 3,40.346 4.346,39 6,39 Z M 6,61 C 4.346,61 3,59.654 3,58 V 51 H 27 V 61 Z M 27,42 v 7 H 21 V 13 H 31 V 3 h 1 25 V 17 H 44 c -2.757,0 -5,2.243 -5,5 v 12 c 0,1.654 -1.346,3 -3,3 h -4 c -2.757,0 -5,2.243 -5,5 z M 58,61 H 29 V 42 c 0,-1.654 1.346,-3 3,-3 h 4 c 2.757,0 5,-2.243 5,-5 V 22 c 0,-1.654 1.346,-3 3,-3 h 1.586 L 61,34.414 V 58 c 0,1.654 -1.346,3 -3,3 z" />
      <path
         id="path50"
         d="M 57,49 H 43 c -1.103,0 -2,0.897 -2,2 v 6 c 0,1.103 0.897,2 2,2 h 14 c 1.103,0 2,-0.897 2,-2 v -6 c 0,-1.103 -0.897,-2 -2,-2 z m 0,8 H 43 L 42.999,51 H 43 57 Z" />
      <path
         id="path52"
         d="m 49,53 h 2 v 2 h -2 z" />
      <path
         id="path54"
         d="m 45,53 h 2 v 2 h -2 z" />
      <path
         id="path56"
         d="m 53,53 h 2 v 2 h -2 z" />
      <path
         id="path58"
         d="M 33,5 H 55 V 7 H 33 Z" />
      <path
         id="path60"
         d="m 33,9 h 22 v 2 H 33 Z" />
      <path
         id="path62"
         d="m 53,13 h 2 v 2 h -2 z" />
      <path
         id="path64"
         d="m 33,13 h 18 v 2 H 33 Z" />
      <path
         id="path66"
         d="M 37,17 H 23 v 10 h 14 z m -2,8 H 25 v -6 h 10 z" />
      <path
         id="path68"
         d="m 23,29 h 14 v 2 H 23 Z" />
      <path
         id="path70"
         d="m 23,33 h 14 v 2 H 23 Z" />
    </g>
  </g>
</svg>
